X:1
T:Title
%%score { ( 1 3 ) | ( 2 4 ) }
L:1/8
M:4/4
K:G
V:1 treble nm="Grand Piano"
V:3 treble 
V:2 treble 
V:4 treble 
V:1
 z4 z2 z[Q:1/4=100] D | DBBA A G2 D | E[EG] [Ec]>[Ec] [Ec]3 E | DFFE D2 [Fd]>[Fd] | d4 B2 D2 | %5
 DBBA A G2 D | E[EG] [Ec]>[Ec] [Ec]4 | FFFE D3 A | G6 z2 | [Bd]4 d4 | z4 [DG]4 | %11
 [EG][EG][EG]E EDDB | BAB[G^c] [Fd]4 | [Bd]4 d4 | [DG-]2 G2 E2 z2 | %15
 [G,EG][G,CE][CEG][G,CE] [G,B,D]3 [CFA] |[M:3/4] G2- [EG-][EG-] [DG]2 |] %17
V:2
 z4 z2 z [G,B,] | [G,B,][G,DG][G,DG][K:bass][D,CD] [D,CD] [G,D]2 [G,B,] | %2
 [C,G,C][C,C] [C,G,]>[C,G,] [C,G,]3 [C,G,C] | [D,F,C][D,A,C][D,A,C][D,G,C] [D,F,C]2 [D,A,]>[D,C] | %4
 [G,B,G]4 [G,DG]2 [G,B,]2 | [G,B,][G,DG][G,DG][K:bass][G,CD] [G,CD] [G,B,D]2 [G,B,] | %6
 [C,G,C][C,C] [C,G,]>[C,G,] [C,G,]4 | [D,C][D,A,C][D,A,C][D,G,C] [D,F,C]3 [D,F,C] | [G,B,]6 z2 | %9
 z4 G4[K:bass] | G,G,G,G, G,G,G,B,, | [C,C][C,C][C,C][C,G,C] [G,C][G,B,][G,B,][K:treble][G,DG] | %12
 [G,DG][K:bass][F,D][G,DG][E,A,] [D,A,]4 | z4[K:treble] G4 | %14
 G,[K:bass]G,[E,B,][C,G,] [B,,G,]B,, z A, | C,C,C,C, D,3 D, |[M:3/4] z2 CC B,2 |] %17
V:3
 x8 | x8 | x8 | x8 | x8 | x8 | x8 | x8 | x8 | z DDB z B, B,2 | [B,G]3 [CE] B,B,B,[G,=FG] | x8 | %12
 x8 | z DDB z B, B,2 | B,B,E[EA] B-[G,B-] [^DB]2 | x8 |[M:3/4] B,2 z2 z2 |] %17
V:4
 x8 | x3[K:bass] x5 | x8 | x8 | x8 | x3[K:bass] x5 | x8 | x8 | x8 | %9
 [G,D]G,G,[G,DG] [G,B,][K:bass]G, G,2 | x8 | x7[K:treble] x | x[K:bass] x7 | %13
 [G,D]G,G,[K:treble][G,DG] [G,B,]G, G,2 | z4[K:bass] z2 [B,,F,]2 | x8 |[M:3/4] G,6 |] %17

